X:1
T:Others
T:Others
T:Charles Hutchinson Gabriel
T:Nella F. Ford, 1910
T:Public Domain Courtesy of the Cyber Hymnal™
T:Public Domain Courtesy of the Cyber Hymnal™
C:Charles Hutchinson Gabriel
Z:Public Domain
Z:Courtesy of the Cyber Hymnal™
%%score 1 ( 2 3 )
L:1/8
Q:1/4=95
M:4/4
K:Ab
V:1 treble 
V:2 bass 
V:3 bass 
V:1
 [CE]>[CA] | [Ec]>[=D=B] [Ec]>[F=d] [Ec]>[E_B] [EA]>[EG] | [DB]>[DA] [DG]>[DF] [CE]2 [CE]>[CE] | %3
w: 1.~Would you|know the joy of liv- ing On the|high- er ground of love? Would you|
w: 2.~Would you|have the world the bet- ter That you|lived in it to- day? Would you|
w: 3.~Would you|cheer an- o- ther faint- ing In the|bat- tle for the right? Would you|
w: 4.~Would you|feel the sec- ret pre- sence Of the|Mas- ter as you go? Would you|
 [CA]>[CG] [CA]>[Cc] [=DB]>[DF] [DG]>[DA] | [EB]>[E=A] [EB]>[Ec] [EB]2 [E_A]>[EB] | %5
w: know the Sav- ior’s friend- ship? Would you|ev- ery prom- ise prove? Would you|
w: let a lit- tle sun- shine In up-|on some dark- ened way? Would you|
w: stay the foot that fal- ters As it|climbs the mount- ain’s height? Would you|
w: walk with faith un- shak- en On your|mis- sion here be- low? Would you|
 [Ec]>[=DB] [Ec]>[E=d] [Ec]>[CA] [_DB]>[Ec] | [Fd]>[DF] [FA]>[FB] [=Ec]4 | [FB]2 [Af]2 [Ae]3 [Ec] | %8
w: ga- ther pre- cious jew- els For your|crown of life a- bove?|Live, work, pray for|
w: bring a soul to Je- sus? Would you|seek for those as- tray?|Live, work, pray for|
w: speak the word of kind- ness That shall|make a dark day bright?|Live, work, pray for|
w: face your Lord un- fear- ing, His “Well|done!” at last to know?|Live, work, pray for|
 [DB]4 [CA]4 ||"^Refrain" [Ge]4 [Fd]4 | ([Ec]3 [DB]) [CA]4 | %11
w: o- thers!|||
w: o- thers!|O- thers!|o- * thers!|
w: o- thers!|||
w: o- thers!|||
 [DF]>[D=E] [DF]>[DG] [FA]>[FG] [FA]>[FB] | [=Ec]4 [_Ed]4 | %13
w: ||
w: Live to work, and watch and pray for|o- thers!|
w: ||
w: ||
 [Ec]>[=D=B] [Ec]>[E_d] [Ee]>[Ec] [E_B]>[EA] | [Fd]>[DF] [FA]>[FB] !fermata![=Ec]4 | %15
w: ||
w: Let the bless- èd Mas- ter our ex-|am- ple ev- er be;|
w: ||
w: ||
 [FB]2 [Af]2 [Ae]3 [Ec] | [DB]4 [CA]4 |] %17
w: ||
w: Live, work, pray for|o- thers!|
w: ||
w: ||
V:2
 [A,,A,]>[A,,A,] | [A,,A,]>[A,,A,] [A,,A,]>[A,,A,] [A,,A,]>[B,,G,] [C,A,]>[C,A,] | %2
 [D,F,]>[D,F,] [D,F,]>[D,A,] [A,,A,]2 [A,,A,]>[A,,A,] | %3
 [F,A,]>[F,B,] [F,A,]>[F,A,] [B,,A,]>[B,,B,] [B,,B,]>[B,,F,] | %4
 [E,G,]>[E,^F,] [E,G,]>[E,G,] G,2 [C,A,]>[B,,G,] | %5
 [A,,A,]>[A,,A,] [A,,A,]>[A,,A,] [A,,A,]>[A,,A,] A,>A, | [D,A,]>[D,A,] [D,A,]>[D,F,] [C,G,]4 | %7
 (F,A,) (B,=B,) [E,C]3 [E,A,] | [E,G,]4 [A,,A,]4 || [E,B,]2 [E,B,]2 [E,G,]2 [E,G,]2 | %10
 [A,,A,]4 [A,,A,]4 | [D,A,]>[D,G,] [D,A,]>[D,B,] [D,A,]>[D,B,] [D,A,]>[D,F,] | [C,G,]4 [B,,G,]4 | %13
 [A,,A,]>[A,,A,] [A,,A,]>[A,,B,] [A,C]>[A,,A,] [B,,G,]>[C,A,] | %14
 [D,A,]>[D,A,] [D,A,]>[D,F,] !fermata![C,G,]4 | (F,A,) (B,=B,) [E,C]3 [E,A,] | [E,G,]4 [A,,A,]4 |] %17
V:3
 x2 | x8 | x8 | x8 | x4 (E,>D,) x2 | x6 A,>A, | x8 | D,2 =D,2 x4 | x8 || x8 | x8 | x8 | x8 | x8 | %14
 x8 | D,2 =D,2 x4 | x8 |] %17

